X:116
T:Reels simple chords 302
M:3/4
L:1/8
K:Cdor
[FA,,]G [A2D,,2] [B2D,2F,2A,2] | [A2D,,2] [F2D,2F,2A,2] [A2D,,2] | [B2D,2F,2A,2] [A2D,,2] [F2D,2F,2A,2] | [A2A,,2] [G2A,2C2E2G2] A,,2 | [F2A,2C2E2G2] [G2A,,2] [A,2C2E2G2] |
A,,2 [d2A,2C2E2G2] [c2A,,2] | [A,CEG]c [c2A,,2] [e2A,2C2E2G2] | [B2A,,2] [A,CEG]B [B2A,,2] | [c2A,2C2E2G2] [B2D,,2] [A2D,2F,2A,2] |
[A2D,,2] [^G2D,2F,2A,2] [A2A,,2] | [A,2C2E2G2] A,,2 [FA,CEG]G | [A2D,,2] [B2D,2F,2A,2] [A2D,,2] | [F2D,2F,2A,2] [A2D,,2] [B2D,2F,2A,2] |
[A2D,,2] [F2D,2F,2A,2] [A2E,,2] | [^G2E,2G,2B,2D2] E,,2 [G2E,2G,2B,2D2] | [^G2E,,2] [E,2G,2B,2D2] E,,2 | [E2E,2^G,2B,2D2] [A2A,,2] [A,CE]A |
[A2A,,2] [B2A,2C2E2] [c2A,,2] | [A,CE]c [c2A,,2] [d2A,2C2E2] | [e2E,,2] [d2E,2^G,2B,2D2] [c2E,,2] | [B2E,2^G,2B,2D2] [A2A,,2] [A,2C2E2=G2] |
[F2A,,2] [A,CEG]G [A2D,,2] | [B2D,2F,2A,2] [A2D,,2] [F2D,2F,2A,2] | [A2D,,2] [B2D,2F,2A,2] [A2D,,2] | [F2D,2F,2A,2] [A2A,,2] [G2A,2C2E2G2] |
A,,2 [F2A,2C2E2G2] [G2A,,2] | [A,2C2E2G2] A,,2 [d2A,2C2E2G2] | [c2A,,2] [A,CEG]c [c2A,,2] | [e2A,2C2E2G2] [B2A,,2] [A,CEG]B |
[B2A,,2] [c2A,2C2E2G2] [B2D,,2] | [A2D,2F,2A,2] [A2D,,2] [^G2D,2F,2A,2] | [A2A,,2] [A,2C2E2G2] A,,2 | [FA,CEG]G [A2D,,2] [B2D,2F,2A,2] |
[A2D,,2] [F2D,2F,2A,2] [A2D,,2] | [B2D,2F,2A,2] [A2D,,2] [F2D,2F,2A,2] | [A2E,,2] [^G2E,2G,2B,2D2] E,,2 | [^G2E,2G,2B,2D2] [G2E,,2] [E,2G,2B,2D2] |
E,,2 [E2E,2^G,2B,2D2] [A2A,,2] | [A,CE]A [A2A,,2] [B2A,2C2E2] | [c2A,,2] [A,CE]c [c2A,,2] | [d2A,2C2E2] [e2E,,2] [d2E,2^G,2B,2D2] |
[c2E,,2] [B2E,2^G,2B,2D2] [A2A,,2] | [A,2C2E2G2] [F2A,,2] [A,CEG]G | [A2D,,2] [D,2F,2A,2] [f2D,,2] | [D,2F,2A,2] [f2D,,2] [D,2F,2A,2] |
[e2D,,2] [D,2F,2A,2] [d2A,,2] | [c2A,2C2E2G2] [c2A,,2] [=c2A,2^C2E2G2] | [c2A,,2] [A,2C2E2G2] [E2A,,2] | [A,CEG]F [G2A,,2] [A,2C2E2G2] |
[d2A,,2] [A,2C2E2G2] [d2A,,2] | [A,2C2E2G2] [c2A,,2] [A,2C2E2G2] | [B2D,,2] [A2D,2F,2A,2] [A2D,,2] | [^G2D,2F,2A,2] [A2D,,2] [D,2F,2A,2] |
[F2D,,2] [D,F,A,]G [A2D,,2] | [D,2F,2A,2] [f2D,,2] [D,2F,2A,2] | [f2D,,2] [D,2F,2A,2] [e2D,,2] | [D,2F,2A,2] [d2A,,2] [c2A,2C2E2G2] |
[c2A,,2] [=c2A,2^C2E2G2] [c2A,,2] | [A,2C2E2G2] [E2A,,2] [A,CEG]F | [G2A,,2] [A,2C2E2G2] [c2A,,2] | [A,CEG]B [A2A,,2] [A,2C2E2G2] |
[f2A,,2] [A,CEG]e [d2D,,2] | [A2D,2F,2A,2] [c2A,,2] [A2A,2C2E2G2] | [d2D,,2] [D,2F,2A,2] [d2D,,2] | [D,2F,2A,2=C2] [A2D,,2] [D,2F,2A,2] |
[f2D,,2] [D,2F,2A,2] [f2D,,2] | [D,2F,2A,2] [e2D,,2] [D,2F,2A,2] | [d2A,,2] [c2A,2C2E2G2] [c2A,,2] | [=c2A,2^C2E2G2] [c2A,,2] [A,2C2E2G2] |
[E2A,,2] [A,CEG]F [G2A,,2] | [A,2C2E2G2] [d2A,,2] [A,2C2E2G2] | [d2A,,2] [A,2C2E2G2] [c2A,,2] | [A,2C2E2G2] [B2D,,2] [A2D,2F,2A,2] |
[A2D,,2] [^G2D,2F,2A,2] [A2D,,2] | [D,2F,2A,2] [F2D,,2] [D,F,A,]G | [A2D,,2] [D,2F,2A,2] [f2D,,2] | [D,2F,2A,2] [f2D,,2] [D,2F,2A,2] |
[e2D,,2] [D,2F,2A,2] [d2A,,2] | [c2A,2C2E2G2] [c2A,,2] [=c2A,2^C2E2G2] | [c2A,,2] [A,2C2E2G2] [E2A,,2] | [A,CEG]F [G2A,,2] [A,2C2E2G2] |
[c2A,,2] [A,CEG]B [A2A,,2] | [A,2C2E2G2] [f2A,,2] [A,CEG]e | [d2D,,2] [A2D,2F,2A,2] [c2A,,2] | [A2A,2C2E2G2] [d2D,,2] [D,2F,2A,2] |
[d2D,,2] [D,F,A,=C] |


